release/img/gears.svg

<svg width="61" height="63" viewBox="0 0 61 63" fill="none" xmlns="http://www.w3.org/2000/svg">
<path d="M54.9767 32.1255C54.3563 32.4499 53.7359 32.8716 53.0829 33.0662C49.4585 34.1041 48.5442 38.3533 51.0911 40.8508C52.4951 42.2131 52.5931 44.2891 51.4176 45.9757C49.981 48.0192 48.2177 49.7707 46.1607 51.1655C44.5281 52.2683 42.4383 52.1386 41.067 50.7438C38.6507 48.3111 34.3733 49.122 33.2958 52.7224C32.6101 54.9281 30.8795 55.9984 28.5612 55.6741C26.3409 55.3822 24.1859 54.7983 22.1288 53.9225C20.137 53.0792 19.1901 51.2952 19.6146 49.1544C20.3982 45.3594 17.7207 42.7321 13.9005 43.4781C11.7454 43.8998 9.85164 42.9916 9.1333 40.9806C8.41495 38.9695 7.8272 36.8936 7.43538 34.8177C6.9456 32.2877 8.02309 30.6659 10.472 29.8226C13.5413 28.7846 14.6841 25.6059 12.9536 22.9462C12.6924 22.5569 12.3332 22.265 12.072 21.9082C10.9291 20.3837 10.8638 18.5997 12.0066 17.0104C13.4433 14.9669 15.2065 13.2154 17.2636 11.8206C18.8309 10.7502 20.9533 10.9124 22.2921 12.2423C24.7736 14.7398 29.051 13.8641 30.1285 10.2637C30.7163 8.28508 32.3162 7.14983 34.2753 7.27957C36.8875 7.47419 39.369 8.15534 41.72 9.25817C43.4505 10.1015 44.2015 11.8855 43.777 13.929C43.3526 15.8751 43.875 17.4969 45.475 18.7619C46.6504 19.6701 47.9891 19.8647 49.3932 19.5404C50.634 19.2485 51.8421 19.3782 52.8217 20.1891C53.4094 20.6756 54.0298 21.3244 54.2584 22.0055C54.944 24.1139 55.5644 26.2871 56.0215 28.4603C56.3481 29.8875 55.8257 31.12 54.9767 32.158V32.1255ZM36.3651 26.806C33.7529 24.2112 29.6061 24.2112 26.9939 26.806C24.3491 29.4334 24.3491 33.5527 26.9939 36.18C29.6387 38.7749 33.7855 38.7749 36.4303 36.1152C39.0425 33.5203 39.0099 29.4009 36.3651 26.806Z" fill="black"/>
</svg>

<svg xmlns="http://www.w3.org/2000/svg" width="61" height="63" fill="none" viewBox="0 0 61 63">
  <path fill="#000" d="M54.977 32.126c-.62.324-1.241.746-1.894.94-3.624 1.038-4.539 5.287-1.992 7.785 1.404 1.362 1.502 3.438.327 5.125a20.435 20.435 0 0 1-5.257 5.19c-1.633 1.102-3.723.973-5.094-.422-2.416-2.433-6.694-1.622-7.771 1.978-.686 2.206-2.416 3.276-4.735 2.952a24.55 24.55 0 0 1-6.432-1.752c-1.992-.843-2.939-2.627-2.514-4.768.783-3.795-1.894-6.422-5.714-5.676-2.156.422-4.05-.486-4.768-2.497-.718-2.012-1.306-4.087-1.698-6.163-.49-2.53.588-4.152 3.037-4.995 3.07-1.038 4.212-4.217 2.482-6.877-.262-.39-.62-.681-.882-1.038-1.143-1.524-1.208-3.308-.065-4.898a20.436 20.436 0 0 1 5.257-5.19c1.567-1.07 3.69-.908 5.028.422 2.482 2.498 6.759 1.622 7.836-1.978.588-1.979 2.188-3.114 4.147-2.984 2.613.194 5.094.875 7.445 1.978 1.73.844 2.482 2.628 2.057 4.671-.424 1.946.098 3.568 1.698 4.833 1.175.908 2.514 1.103 3.918.778 1.241-.291 2.45-.162 3.429.65.587.486 1.208 1.134 1.436 1.816.686 2.108 1.306 4.281 1.764 6.454.326 1.427-.196 2.66-1.045 3.698v-.032Zm-18.612-5.32a6.614 6.614 0 0 0-9.371 0c-2.645 2.627-2.645 6.747 0 9.374 2.645 2.595 6.791 2.595 9.436-.065 2.612-2.595 2.58-6.714-.065-9.309Z"/>
</svg>
